static/logos/bitbucket-glyph-color.svg

<svg width="50" height="46" viewBox="0 0 50 46" fill="none" xmlns="http://www.w3.org/2000/svg">
<path d="M2.88897 1.50745C2.66295 1.50454 2.43904 1.55113 2.23295 1.64396C2.02687 1.73679 1.84359 1.87361 1.69601 2.04481C1.54842 2.21602 1.4401 2.41743 1.37865 2.63496C1.31719 2.85248 1.3041 3.0808 1.34029 3.30393L7.91445 43.2135C7.99637 43.702 8.24774 44.1459 8.62443 44.4674C9.00111 44.7887 9.47902 44.9672 9.97421 44.9713H41.5133C41.8843 44.9761 42.245 44.8474 42.5293 44.6087C42.8135 44.3698 43.0026 44.037 43.062 43.6705L49.6515 3.31941C49.6878 3.0963 49.6746 2.86796 49.6133 2.65046C49.5517 2.43293 49.4435 2.2315 49.2959 2.0603C49.1483 1.8891 48.965 1.75228 48.7589 1.65945C48.5528 1.56662 48.3289 1.52002 48.1028 1.52294L2.88897 1.50745ZM30.5717 30.3518H20.5053L17.7796 16.1193H33.0109L30.5717 30.3518Z" fill="#2684FF"/>
<path d="M47.5433 16.1196H33.009L30.5699 30.3522H20.5033L8.61719 44.4682C8.99393 44.7941 9.47425 44.9752 9.97227 44.9793H41.519C41.8903 44.9841 42.2507 44.8554 42.5351 44.6167C42.8192 44.3778 43.0083 44.045 43.0677 43.6785L47.5433 16.1196Z" fill="url(#paint0_linear_1_3372)"/>
<defs>
<linearGradient id="paint0_linear_1_3372" x1="50.904" y1="20.0998" x2="26.884" y2="38.8543" gradientUnits="userSpaceOnUse">
<stop offset="0.18" stop-color="#0052CC"/>
<stop offset="1" stop-color="#2684FF"/>
</linearGradient>
</defs>
</svg>

<svg xmlns="http://www.w3.org/2000/svg" width="69.565" height="64" fill="none" viewBox="0 0 50 46"><path fill="#2684FF" d="M2.889 1.507A1.549 1.549 0 0 0 1.34 3.304l6.574 39.91a2.106 2.106 0 0 0 2.06 1.757h31.54a1.55 1.55 0 0 0 1.548-1.3l6.59-40.352a1.55 1.55 0 0 0-1.55-1.796L2.89 1.507Zm27.683 28.845H20.505L17.78 16.119h15.23l-2.438 14.233Z"/><path fill="url(#a)" d="M47.543 16.12H33.01l-2.44 14.232H20.504L8.617 44.468c.377.326.857.507 1.355.511H41.52a1.55 1.55 0 0 0 1.549-1.3l4.475-27.56Z"/><defs><linearGradient id="a" x1="50.904" x2="26.884" y1="20.1" y2="38.854" gradientUnits="userSpaceOnUse"><stop offset=".18" stop-color="#0052CC"/><stop offset="1" stop-color="#2684FF"/></linearGradient></defs></svg>
